!!!OTL: SO WILL ICH FRISCH UND FROEHLICH SEYN
!!!ARE: Europa, Mitteleuropa, Deutschland
!!!SCT: Z0292
!!!YEM: Copyright 1995, estate of Helmut Schaffrath.
**kern
*ICvox
*Ivox
*M3/8
*k[f#]
*G:
{8g
=1
8b
8g
8b
=2
8dd
8b
8dd
=3
8gg
8ff#
8ee
=4
4dd}
{8cc
=5
4b
8a
=6
4g
8b
=7
4.a
=8
4d}
{8g
=9
8b
8g
8b
=10
8dd
8b
8dd
=11
8gg
8ff#
8ee
=12
4dd}
{8cc
=13
4b
8a
=14
4g
8b
=15
4.a
=16
4d}
{8d
=17
8dd
8cc
8b
=18
8b
8cc
8dd
=19
4cc
8cc
=20
4cc}
{8b
=21
4cc
8b
=22
4cc
8b
=23
4a
8g
=24
4.dd
=25
4d}
{8dd
=26
8dd
8cc
8b
=27
8b
8cc
8dd
=28
4cc
8cc
=29
4cc}
{8cc
=30
8cc
8b
8a
=31
8a
8b
8cc
=32
4b
8b
=33
4b}
{8dd
=34
4cc
8b
=35
4a
8g
=36
4.a
=37
4g}
==
!!!AGN: Lyrisches Lied, Romanze
!!!ONB: ESAC (Essen Associative Code) Database: ZUCCAL
!!!AMT: simple triple
!!!AIN: vox
!!!EED: Helmut Schaffrath
!!!EEV: 1.0
*-
